src/assets/icons/weeks,simple,19.svg

<svg width="48" height="48" viewBox="0 0 48 48" fill="none" xmlns="http://www.w3.org/2000/svg">
<rect opacity="0.2" x="5" y="5" width="38" height="38" rx="4" fill="black"/>
<path d="M5 13C5 9.22876 5 7.34315 6.17157 6.17157C7.34315 5 9.22876 5 13 5H35C38.7712 5 40.6569 5 41.8284 6.17157C43 7.34315 43 9.22876 43 13V15H5V13Z" fill="black"/>
<path d="M19.2156 20.5455H15.7468L11.4258 23.2812V26.554L15.4229 24.0483H15.5252V38H19.2156V20.5455ZM29.6793 20.3068C25.7759 20.2898 23.1424 22.8466 23.1594 26.358C23.168 29.6136 25.4265 31.9744 28.5202 31.9744C30.4379 31.9744 32.1424 31.0455 32.918 29.5114H33.0373C33.0288 32.9716 31.8271 35.0767 29.5515 35.0767C28.2134 35.0767 27.2504 34.3438 26.9691 33.0739H23.3299C23.6708 36.0142 26.0572 38.2386 29.5515 38.2386C33.8725 38.2386 36.6594 34.7443 36.6509 28.821C36.6424 22.4972 33.2674 20.3239 29.6793 20.3068ZM29.7049 23.2045C31.4009 23.2045 32.6538 24.5852 32.6708 26.2472C32.6793 27.9176 31.3583 29.2983 29.6708 29.2983C27.9663 29.2983 26.7475 27.9688 26.739 26.2557C26.7219 24.5511 27.9918 23.2045 29.7049 23.2045Z" fill="black"/>
</svg>

<svg xmlns="http://www.w3.org/2000/svg" width="48" height="48" fill="none" viewBox="0 0 48 48">
  <rect width="38" height="38" x="5" y="5" fill="#000" opacity=".2" rx="4"/>
  <path fill="#000" d="M5 13c0-3.771 0-5.657 1.172-6.828C7.343 5 9.229 5 13 5h22c3.771 0 5.657 0 6.828 1.172C43 7.343 43 9.229 43 13v2H5v-2zM19.216 20.546h-3.47l-4.32 2.735v3.273l3.997-2.506h.102V38h3.69V20.546zm10.463-.24c-3.903-.016-6.537 2.54-6.52 6.052.009 3.256 2.268 5.616 5.361 5.616 1.918 0 3.622-.928 4.398-2.463h.12c-.01 3.46-1.21 5.566-3.486 5.566-1.339 0-2.302-.733-2.583-2.003h-3.64c.342 2.94 2.728 5.165 6.223 5.165 4.32 0 7.107-3.495 7.099-9.418-.009-6.324-3.384-8.497-6.972-8.514zm.026 2.898c1.696 0 2.949 1.381 2.966 3.043.008 1.67-1.313 3.051-3 3.051-1.705 0-2.924-1.33-2.932-3.042-.017-1.705 1.253-3.052 2.966-3.052z"/>
</svg>
